img/phone.svg

<svg width="49" height="49" viewBox="0 0 49 49" fill="none" xmlns="http://www.w3.org/2000/svg">
<path d="M45.125 3.15625L36.3125 1.1875C34.25 0.71875 32.1875 1.75 31.4375 3.625L27.3125 13.1875C26.5625 14.875 27.0312 16.9375 28.5312 18.1562L32.2812 21.25C29.6562 26.125 25.5312 30.1562 20.6562 32.875L17.5625 29.125C16.3438 27.625 14.2812 27.1562 12.5938 27.9062L3.03125 31.9375C1.15625 32.7812 0.125 34.8438 0.59375 36.9062L2.5625 45.7188C3.03125 47.6875 4.8125 49 6.78125 49C29.75 49 48.5 30.4375 48.5 7.375C48.5 5.40625 47.0938 3.625 45.125 3.15625ZM6.96875 44.5L5 36.0625L14.1875 32.125L19.4375 38.5C28.7188 34.0938 33.5 29.3125 37.9062 20.0312L31.5312 14.7812L35.4688 5.59375L44 7.5625C43.9062 27.9062 27.3125 44.4062 6.96875 44.5Z" fill="#F7654A"/>
</svg>

<svg width="49" height="49" fill="none" xmlns="http://www.w3.org/2000/svg"><path d="m45.125 3.156-8.813-1.969c-2.062-.468-4.124.563-4.874 2.438l-4.125 9.563c-.75 1.687-.282 3.75 1.218 4.968l3.75 3.094c-2.625 4.875-6.75 8.906-11.625 11.625l-3.093-3.75c-1.22-1.5-3.282-1.969-4.97-1.219l-9.562 4.032C1.156 32.78.125 34.843.594 36.906l1.969 8.813C3.03 47.687 4.813 49 6.78 49 29.75 49 48.5 30.437 48.5 7.375c0-1.969-1.406-3.75-3.375-4.219zM6.969 44.5 5 36.062l9.188-3.937 5.25 6.375c9.28-4.406 14.062-9.188 18.468-18.469l-6.375-5.25 3.938-9.187L44 7.562C43.906 27.907 27.312 44.407 6.969 44.5z" fill="#F7654A"/></svg>
